documentation/public/assets/images/number-input-dos-and-donts-04.svg

<svg width="144" height="72" viewBox="0 0 144 72" fill="none" xmlns="http://www.w3.org/2000/svg">
<path d="M0.352273 6.36364H2.73295L5.57955 11.5114H5.69318L8.53977 6.36364H10.9205L6.6875 13.6591V18H4.58523V13.6591L0.352273 6.36364ZM14.5611 18.1705C13.6861 18.1705 12.9304 17.9886 12.294 17.625C11.6615 17.2576 11.1747 16.7386 10.8338 16.0682C10.4929 15.3939 10.3224 14.6004 10.3224 13.6875C10.3224 12.7898 10.4929 12.0019 10.8338 11.3239C11.1785 10.642 11.6596 10.1117 12.277 9.73295C12.8944 9.35038 13.6198 9.15909 14.4531 9.15909C14.991 9.15909 15.4986 9.24621 15.9759 9.42045C16.4569 9.59091 16.8812 9.85606 17.2486 10.2159C17.6198 10.5758 17.9115 11.0341 18.1236 11.5909C18.3357 12.1439 18.4418 12.803 18.4418 13.5682V14.1989H11.2884V12.8125H16.4702C16.4664 12.4186 16.3812 12.0682 16.2145 11.7614C16.0478 11.4508 15.8149 11.2064 15.5156 11.0284C15.2202 10.8504 14.8755 10.7614 14.4815 10.7614C14.0611 10.7614 13.6918 10.8636 13.3736 11.0682C13.0554 11.2689 12.8073 11.5341 12.6293 11.8636C12.455 12.1894 12.366 12.5473 12.3622 12.9375V14.1477C12.3622 14.6553 12.455 15.0909 12.6406 15.4545C12.8262 15.8144 13.0857 16.0909 13.419 16.2841C13.7524 16.4735 14.1425 16.5682 14.5895 16.5682C14.8887 16.5682 15.1596 16.5265 15.402 16.4432C15.6444 16.3561 15.8546 16.2292 16.0327 16.0625C16.2107 15.8958 16.3452 15.6894 16.4361 15.4432L18.3565 15.6591C18.2353 16.1667 18.0043 16.6098 17.6634 16.9886C17.3262 17.3636 16.8944 17.6553 16.3679 17.8636C15.8414 18.0682 15.2391 18.1705 14.5611 18.1705ZM22.6932 18.1761C22.1402 18.1761 21.642 18.0777 21.1989 17.8807C20.7595 17.6799 20.411 17.3845 20.1534 16.9943C19.8996 16.6042 19.7727 16.1231 19.7727 15.5511C19.7727 15.0587 19.8636 14.6515 20.0455 14.3295C20.2273 14.0076 20.4754 13.75 20.7898 13.5568C21.1042 13.3636 21.4583 13.2178 21.8523 13.1193C22.25 13.017 22.661 12.9432 23.0852 12.8977C23.5966 12.8447 24.0114 12.7973 24.3295 12.7557C24.6477 12.7102 24.8788 12.642 25.0227 12.5511C25.1705 12.4564 25.2443 12.3106 25.2443 12.1136V12.0795C25.2443 11.6515 25.1174 11.3201 24.8636 11.0852C24.6098 10.8504 24.2443 10.733 23.767 10.733C23.2633 10.733 22.8636 10.8428 22.5682 11.0625C22.2765 11.2822 22.0795 11.5417 21.9773 11.8409L20.0568 11.5682C20.2083 11.0379 20.4583 10.5947 20.8068 10.2386C21.1553 9.87879 21.5814 9.60985 22.0852 9.43182C22.589 9.25 23.1458 9.15909 23.7557 9.15909C24.1761 9.15909 24.5947 9.20833 25.0114 9.30682C25.428 9.4053 25.8087 9.56818 26.1534 9.79545C26.4981 10.0189 26.7746 10.3239 26.983 10.7102C27.1951 11.0966 27.3011 11.5795 27.3011 12.1591V18H25.3239V16.8011H25.2557C25.1307 17.0436 24.9545 17.2708 24.7273 17.483C24.5038 17.6913 24.2216 17.8598 23.8807 17.9886C23.5436 18.1136 23.1477 18.1761 22.6932 18.1761ZM23.2273 16.6648C23.6402 16.6648 23.9981 16.5833 24.3011 16.4205C24.6042 16.2538 24.8371 16.0341 25 15.7614C25.1667 15.4886 25.25 15.1913 25.25 14.8693V13.8409C25.1856 13.8939 25.0758 13.9432 24.9205 13.9886C24.7689 14.0341 24.5985 14.0739 24.4091 14.108C24.2197 14.142 24.0322 14.1723 23.8466 14.1989C23.661 14.2254 23.5 14.2481 23.3636 14.267C23.0568 14.3087 22.7822 14.3769 22.5398 14.4716C22.2973 14.5663 22.1061 14.6989 21.9659 14.8693C21.8258 15.036 21.7557 15.2519 21.7557 15.517C21.7557 15.8958 21.8939 16.1818 22.1705 16.375C22.447 16.5682 22.7992 16.6648 23.2273 16.6648ZM29.3693 18V9.27273H31.3636V10.7273H31.4545C31.6136 10.2235 31.8864 9.83523 32.2727 9.5625C32.6629 9.28598 33.108 9.14773 33.608 9.14773C33.7216 9.14773 33.8485 9.15341 33.9886 9.16477C34.1326 9.17235 34.2519 9.18561 34.3466 9.20455V11.0966C34.2595 11.0663 34.1212 11.0398 33.9318 11.017C33.7462 10.9905 33.5663 10.9773 33.392 10.9773C33.017 10.9773 32.6799 11.0587 32.3807 11.2216C32.0852 11.3807 31.8523 11.6023 31.6818 11.8864C31.5114 12.1705 31.4261 12.4981 31.4261 12.8693V18H29.3693Z" fill="#1F1F1F"/>
<path d="M40.5 32.5H103.5V71.5H40.5V32.5Z" fill="white"/>
<path d="M61.2955 46.3636V58H59.8864V47.8409H59.8182L56.9773 49.7273V48.2955L59.8864 46.3636H61.2955ZM68.3466 46.2045C68.8239 46.2083 69.3011 46.2992 69.7784 46.4773C70.2557 46.6553 70.6913 46.9508 71.0852 47.3636C71.4792 47.7727 71.7955 48.3314 72.0341 49.0398C72.2727 49.7481 72.392 50.6364 72.392 51.7045C72.392 52.7386 72.2936 53.6572 72.0966 54.4602C71.9034 55.2595 71.6231 55.9337 71.2557 56.483C70.892 57.0322 70.4489 57.4489 69.9261 57.733C69.4072 58.017 68.8201 58.1591 68.1648 58.1591C67.5133 58.1591 66.9318 58.0303 66.4205 57.7727C65.9129 57.5114 65.4962 57.1496 65.1705 56.6875C64.8485 56.2216 64.642 55.6818 64.5511 55.0682H65.9375C66.0625 55.6023 66.3106 56.0436 66.6818 56.392C67.0568 56.7367 67.5511 56.9091 68.1648 56.9091C69.0625 56.9091 69.7708 56.517 70.2898 55.733C70.8125 54.9489 71.0739 53.8409 71.0739 52.4091H70.983C70.7708 52.7273 70.5189 53.0019 70.2273 53.233C69.9356 53.464 69.6117 53.642 69.2557 53.767C68.8996 53.892 68.5208 53.9545 68.1193 53.9545C67.4527 53.9545 66.8409 53.7898 66.2841 53.4602C65.7311 53.1269 65.2879 52.6705 64.9545 52.0909C64.625 51.5076 64.4602 50.8409 64.4602 50.0909C64.4602 49.3788 64.6193 48.7273 64.9375 48.1364C65.2595 47.5417 65.7102 47.0682 66.2898 46.7159C66.8731 46.3636 67.5587 46.1932 68.3466 46.2045ZM68.3466 47.4545C67.8693 47.4545 67.4394 47.5739 67.0568 47.8125C66.678 48.0473 66.3769 48.3655 66.1534 48.767C65.9337 49.1648 65.8239 49.6061 65.8239 50.0909C65.8239 50.5758 65.9299 51.017 66.142 51.4148C66.358 51.8087 66.6515 52.1231 67.0227 52.358C67.3977 52.589 67.8239 52.7045 68.3011 52.7045C68.661 52.7045 68.9962 52.6345 69.3068 52.4943C69.6174 52.3504 69.8883 52.1553 70.1193 51.9091C70.3542 51.6591 70.5379 51.3769 70.6705 51.0625C70.803 50.7443 70.8693 50.4129 70.8693 50.0682C70.8693 49.6136 70.7595 49.1875 70.5398 48.7898C70.3239 48.392 70.0246 48.0701 69.642 47.8239C69.2633 47.5777 68.8314 47.4545 68.3466 47.4545ZM78.331 46.2045C78.8082 46.2083 79.2855 46.2992 79.7628 46.4773C80.2401 46.6553 80.6757 46.9508 81.0696 47.3636C81.4635 47.7727 81.7798 48.3314 82.0185 49.0398C82.2571 49.7481 82.3764 50.6364 82.3764 51.7045C82.3764 52.7386 82.2779 53.6572 82.081 54.4602C81.8878 55.2595 81.6075 55.9337 81.2401 56.483C80.8764 57.0322 80.4332 57.4489 79.9105 57.733C79.3916 58.017 78.8045 58.1591 78.1491 58.1591C77.4976 58.1591 76.9162 58.0303 76.4048 57.7727C75.8973 57.5114 75.4806 57.1496 75.1548 56.6875C74.8329 56.2216 74.6264 55.6818 74.5355 55.0682H75.9219C76.0469 55.6023 76.295 56.0436 76.6662 56.392C77.0412 56.7367 77.5355 56.9091 78.1491 56.9091C79.0469 56.9091 79.7552 56.517 80.2741 55.733C80.7969 54.9489 81.0582 53.8409 81.0582 52.4091H80.9673C80.7552 52.7273 80.5033 53.0019 80.2116 53.233C79.92 53.464 79.5961 53.642 79.2401 53.767C78.884 53.892 78.5052 53.9545 78.1037 53.9545C77.437 53.9545 76.8253 53.7898 76.2685 53.4602C75.7154 53.1269 75.2723 52.6705 74.9389 52.0909C74.6094 51.5076 74.4446 50.8409 74.4446 50.0909C74.4446 49.3788 74.6037 48.7273 74.9219 48.1364C75.2438 47.5417 75.6946 47.0682 76.2741 46.7159C76.8575 46.3636 77.5431 46.1932 78.331 46.2045ZM78.331 47.4545C77.8537 47.4545 77.4238 47.5739 77.0412 47.8125C76.6624 48.0473 76.3613 48.3655 76.1378 48.767C75.9181 49.1648 75.8082 49.6061 75.8082 50.0909C75.8082 50.5758 75.9143 51.017 76.1264 51.4148C76.3423 51.8087 76.6359 52.1231 77.0071 52.358C77.3821 52.589 77.8082 52.7045 78.2855 52.7045C78.6454 52.7045 78.9806 52.6345 79.2912 52.4943C79.6018 52.3504 79.8726 52.1553 80.1037 51.9091C80.3385 51.6591 80.5223 51.3769 80.6548 51.0625C80.7874 50.7443 80.8537 50.4129 80.8537 50.0682C80.8537 49.6136 80.7438 49.1875 80.5241 48.7898C80.3082 48.392 80.009 48.0701 79.6264 47.8239C79.2476 47.5777 78.8158 47.4545 78.331 47.4545ZM88.2472 58.1591C87.5805 58.1591 86.9801 58.0265 86.446 57.7614C85.9119 57.4962 85.4839 57.1326 85.1619 56.6705C84.84 56.2083 84.6638 55.6818 84.6335 55.0909H85.9972C86.0502 55.6174 86.2888 56.053 86.7131 56.3977C87.1411 56.7386 87.6525 56.9091 88.2472 56.9091C88.7244 56.9091 89.1487 56.7973 89.5199 56.5739C89.8949 56.3504 90.1884 56.0436 90.4006 55.6534C90.6165 55.2595 90.7244 54.8144 90.7244 54.3182C90.7244 53.8106 90.6127 53.358 90.3892 52.9602C90.1695 52.5587 89.8665 52.2424 89.4801 52.0114C89.0938 51.7803 88.6525 51.6629 88.1562 51.6591C87.8002 51.6553 87.4347 51.7102 87.0597 51.8239C86.6847 51.9337 86.3759 52.0758 86.1335 52.25L84.8153 52.0909L85.5199 46.3636H91.5653V47.6136H86.7017L86.2926 51.0455H86.3608C86.5994 50.8561 86.8987 50.6989 87.2585 50.5739C87.6184 50.4489 87.9934 50.3864 88.3835 50.3864C89.0956 50.3864 89.7301 50.5568 90.2869 50.8977C90.8475 51.2348 91.2869 51.697 91.6051 52.2841C91.9271 52.8712 92.0881 53.5417 92.0881 54.2955C92.0881 55.0379 91.9214 55.7008 91.5881 56.2841C91.2585 56.8636 90.804 57.322 90.2244 57.6591C89.6449 57.9924 88.9858 58.1591 88.2472 58.1591Z" fill="#333333"/>
<path d="M40.5 32.5H103.5V71.5H40.5V32.5Z" stroke="#545454"/>
<mask id="path-4-inside-1_11653_104328" fill="white">
<path d="M0 36C0 33.7909 1.79086 32 4 32H40V72H4C1.79086 72 0 70.2091 0 68V36Z"/>
</mask>
<path d="M0 36C0 33.7909 1.79086 32 4 32H40V72H4C1.79086 72 0 70.2091 0 68V36Z" fill="white"/>
<path d="M28.0001 52.38H12.0001C11.7926 52.38 11.6201 52.2102 11.6201 52C11.6201 51.7861 11.7863 51.62 12.0001 51.62H28.0001C28.2077 51.62 28.3801 51.7898 28.3801 52C28.3801 52.2139 28.214 52.38 28.0001 52.38Z" fill="#0F67F5" stroke="#757575"/>
<path d="M-1 36C-1 33.2386 1.23858 31 4 31H40V33H4C2.34315 33 1 34.3431 1 36H-1ZM40 73H4C1.23858 73 -1 70.7614 -1 68H1C1 69.6569 2.34315 71 4 71H40V73ZM4 73C1.23858 73 -1 70.7614 -1 68V36C-1 33.2386 1.23858 31 4 31V33C2.34315 33 1 34.3431 1 36V68C1 69.6569 2.34315 71 4 71V73ZM40 32V72V32Z" fill="#545454" mask="url(#path-4-inside-1_11653_104328)"/>
<mask id="path-7-inside-2_11653_104328" fill="white">
<path d="M104 32H140C142.209 32 144 33.7909 144 36V68C144 70.2091 142.209 72 140 72H104V32Z"/>
</mask>
<path d="M104 32H140C142.209 32 144 33.7909 144 36V68C144 70.2091 142.209 72 140 72H104V32Z" fill="white"/>
<path d="M123.62 52.88V52.38H123.12H116C115.793 52.38 115.62 52.2102 115.62 52C115.62 51.7861 115.786 51.62 116 51.62H123.12H123.62V51.12V44C123.62 43.7924 123.79 43.62 124 43.62C124.214 43.62 124.38 43.7861 124.38 44V51.12V51.62H124.88H132C132.208 51.62 132.38 51.7898 132.38 52C132.38 52.2139 132.214 52.38 132 52.38H124.88H124.38V52.88V60C124.38 60.2076 124.21 60.38 124 60.38C123.793 60.38 123.62 60.2102 123.62 60V52.88Z" fill="#0F67F5" stroke="#757575"/>
<path d="M104 31H140C142.761 31 145 33.2386 145 36H143C143 34.3431 141.657 33 140 33H104V31ZM145 68C145 70.7614 142.761 73 140 73H104V71H140C141.657 71 143 69.6569 143 68H145ZM104 72V32V72ZM140 31C142.761 31 145 33.2386 145 36V68C145 70.7614 142.761 73 140 73V71C141.657 71 143 69.6569 143 68V36C143 34.3431 141.657 33 140 33V31Z" fill="#545454" mask="url(#path-7-inside-2_11653_104328)"/>
</svg>

<svg width="144" height="72" fill="none" xmlns="http://www.w3.org/2000/svg"><path d="M.35 6.36h2.38l2.85 5.15h.11l2.85-5.15h2.38l-4.23 7.3V18h-2.1v-4.34L.35 6.36Zm14.21 11.81a4.5 4.5 0 0 1-2.27-.55 3.7 3.7 0 0 1-1.46-1.55 5.21 5.21 0 0 1-.5-2.38c0-.9.16-1.69.5-2.37a3.87 3.87 0 0 1 3.62-2.16c.54 0 1.05.09 1.53.26s.9.44 1.27.8c.37.36.66.81.87 1.37.22.55.32 1.21.32 1.98v.63H11.3v-1.4h5.18c0-.4-.09-.74-.26-1.05a1.89 1.89 0 0 0-1.73-1 2 2 0 0 0-1.1.3c-.32.2-.57.47-.75.8-.18.33-.26.69-.27 1.08v1.2c0 .52.1.95.28 1.31.19.36.45.64.78.83.33.2.72.29 1.17.29.3 0 .57-.04.81-.13.24-.08.45-.21.63-.38.18-.16.32-.37.4-.62l1.93.22a3 3 0 0 1-.7 1.33c-.33.37-.77.67-1.3.87-.52.2-1.12.31-1.8.31Zm8.13 0c-.55 0-1.05-.1-1.5-.29a2.5 2.5 0 0 1-1.04-.89 2.6 2.6 0 0 1-.38-1.44c0-.5.1-.9.28-1.22.18-.32.43-.58.74-.77.31-.2.67-.34 1.06-.44.4-.1.81-.18 1.24-.22l1.24-.14c.32-.05.55-.12.7-.2.14-.1.21-.25.21-.45v-.03c0-.43-.12-.76-.38-1-.25-.23-.62-.35-1.1-.35-.5 0-.9.11-1.2.33-.28.22-.48.48-.58.78l-1.92-.27a3.07 3.07 0 0 1 2.03-2.14 5.44 5.44 0 0 1 2.93-.13c.4.1.79.27 1.13.5.35.22.62.52.83.91.22.39.32.87.32 1.45V18h-1.98v-1.2h-.06a2.51 2.51 0 0 1-1.38 1.2c-.34.12-.73.19-1.19.19Zm.54-1.5c.41 0 .77-.09 1.07-.25.3-.17.54-.39.7-.66.17-.27.25-.57.25-.9v-1.02a.97.97 0 0 1-.33.15l-.51.12a16.16 16.16 0 0 1-1.05.16c-.3.04-.58.1-.82.2s-.43.23-.57.4a.97.97 0 0 0-.21.65c0 .38.13.66.41.86.28.19.63.28 1.06.28ZM29.37 18V9.27h2v1.46h.08a2.18 2.18 0 0 1 2.16-1.58 4.75 4.75 0 0 1 .74.05v1.9a3.82 3.82 0 0 0-.95-.12c-.38 0-.72.08-1.02.24a1.79 1.79 0 0 0-.95 1.65V18h-2.06Z" fill="#1F1F1F"/><path d="M40.5 32.5h63v39h-63v-39Z" fill="#fff"/><path d="M61.3 46.36V58h-1.41V47.84h-.07l-2.84 1.89V48.3l2.9-1.94h1.42Zm7.05-.16c.47 0 .95.1 1.43.28.48.18.91.47 1.3.88.4.41.72.97.95 1.68a11.62 11.62 0 0 1 .06 5.42c-.19.8-.47 1.47-.83 2.02a3.6 3.6 0 0 1-3.1 1.68c-.65 0-1.23-.13-1.74-.39a3.42 3.42 0 0 1-1.87-2.7h1.39c.12.53.37.97.74 1.32.38.35.87.52 1.48.52.9 0 1.61-.4 2.13-1.18.52-.78.78-1.89.78-3.32h-.09a3.57 3.57 0 0 1-1.72 1.36 3.54 3.54 0 0 1-4.3-1.68 4 4 0 0 1-.5-2c0-.71.16-1.36.48-1.95a3.7 3.7 0 0 1 3.4-1.94Zm0 1.25c-.48 0-.91.12-1.3.36a2.7 2.7 0 0 0-1.23 2.28c0 .49.11.93.32 1.32a2.39 2.39 0 0 0 2.16 1.29 2.42 2.42 0 0 0 1.82-.8c.23-.24.42-.52.55-.84a2.6 2.6 0 0 0-.13-2.27 2.7 2.7 0 0 0-.9-.97 2.32 2.32 0 0 0-1.3-.37Zm9.98-1.25a4 4 0 0 1 1.43.28c.48.18.92.47 1.31.88.4.41.71.97.95 1.68a11.62 11.62 0 0 1 .06 5.42c-.2.8-.47 1.47-.84 2.02a3.6 3.6 0 0 1-3.1 1.68c-.64 0-1.22-.13-1.74-.39a3.42 3.42 0 0 1-1.86-2.7h1.38c.13.53.38.97.75 1.32.37.35.87.52 1.48.52.9 0 1.6-.4 2.12-1.18.53-.78.79-1.89.79-3.32h-.1a3.57 3.57 0 0 1-1.72 1.36 3.54 3.54 0 0 1-4.3-1.68 4 4 0 0 1-.5-2c0-.71.16-1.36.48-1.95a3.7 3.7 0 0 1 3.41-1.94Zm0 1.25c-.48 0-.9.12-1.29.36a2.7 2.7 0 0 0-1.23 2.28c0 .49.1.93.32 1.32a2.39 2.39 0 0 0 2.16 1.29 2.42 2.42 0 0 0 1.81-.8c.24-.24.42-.52.55-.84a2.6 2.6 0 0 0-.13-2.27c-.21-.4-.51-.72-.9-.97a2.32 2.32 0 0 0-1.29-.37Zm9.92 10.7a4 4 0 0 1-1.8-.39 3.35 3.35 0 0 1-1.29-1.09c-.32-.46-.5-.99-.53-1.58H86c.05.53.29.96.71 1.3.43.35.94.52 1.54.52a2.42 2.42 0 0 0 2.15-1.26c.22-.39.32-.84.32-1.33 0-.5-.1-.96-.33-1.36a2.46 2.46 0 0 0-2.23-1.3 3.63 3.63 0 0 0-2.03.59l-1.31-.16.7-5.73h6.05v1.25H86.7l-.4 3.44h.06a3.4 3.4 0 0 1 2.02-.66 3.57 3.57 0 0 1 3.23 1.9c.32.58.48 1.25.48 2s-.17 1.41-.5 2a3.66 3.66 0 0 1-3.34 1.87Z" fill="#333"/><path d="M40.5 32.5h63v39h-63v-39Z" stroke="#545454"/><mask id="a" fill="#fff"><path d="M0 36a4 4 0 0 1 4-4h36v40H4a4 4 0 0 1-4-4V36Z"/></mask><path d="M0 36a4 4 0 0 1 4-4h36v40H4a4 4 0 0 1-4-4V36Z" fill="#fff"/><path d="M28 52.38H12a.38.38 0 0 1-.38-.38c0-.21.17-.38.38-.38h16c.2 0 .38.17.38.38s-.17.38-.38.38Z" fill="#0F67F5" stroke="#757575"/><path d="M-1 36a5 5 0 0 1 5-5h36v2H4a3 3 0 0 0-3 3h-2Zm41 37H4a5 5 0 0 1-5-5h2a3 3 0 0 0 3 3h36v2ZM4 73a5 5 0 0 1-5-5V36a5 5 0 0 1 5-5v2a3 3 0 0 0-3 3v32a3 3 0 0 0 3 3v2Zm36-41v40-40Z" fill="#545454" mask="url(#a)"/><mask id="b" fill="#fff"><path d="M104 32h36a4 4 0 0 1 4 4v32a4 4 0 0 1-4 4h-36V32Z"/></mask><path d="M104 32h36a4 4 0 0 1 4 4v32a4 4 0 0 1-4 4h-36V32Z" fill="#fff"/><path d="M123.62 52.88v-.5H116a.38.38 0 0 1-.38-.38c0-.21.17-.38.38-.38h7.62V44c0-.2.17-.38.38-.38s.38.17.38.38v7.62H132c.2 0 .38.17.38.38s-.17.38-.38.38h-7.62V60c0 .2-.17.38-.38.38a.38.38 0 0 1-.38-.38v-7.12Z" fill="#0F67F5" stroke="#757575"/><path d="M104 31h36a5 5 0 0 1 5 5h-2a3 3 0 0 0-3-3h-36v-2Zm41 37a5 5 0 0 1-5 5h-36v-2h36a3 3 0 0 0 3-3h2Zm-41 4V32v40Zm36-41a5 5 0 0 1 5 5v32a5 5 0 0 1-5 5v-2a3 3 0 0 0 3-3V36a3 3 0 0 0-3-3v-2Z" fill="#545454" mask="url(#b)"/></svg>
